X:37
T:Gunpowder Reel
C:Bob McQuillen
S:Bernie Waugh
R:Reel
M:4/4
L:1/8
K:E minor
|:GE|\
"Em"B,E~ED EFGA|"A7"BE~ED EFGA|"C"Bcde dBAG|"B7"FGABA2GE|
"Em"B,E~ED EFGA|"A7"BE~ED EFGA|"C"Bcde "B7"dBAB|"Em"G2E2E2:|
|:GA|\
"G"Bded edBA|"Cmaj7"BE~EDE2GA|"Am7"Bdef gbag|"D7"fdd^cd2ga|
"G"bagb "D"agfa|"C"gfeg "B7"f2ga|"A7"bagf edBA|"Em"Beed e2:|

